docs/logo.svg

<svg xmlns="http://www.w3.org/2000/svg" width="48" height="44" viewBox="0 0 48 44" fill="none" style="&#10;">
  <path d="M14.642 1.84962L10.0671 10.5861C9.77168 11.1501 9.96621 11.8554 10.5046 12.1725L17.6681 16.3922C18.214 16.7137 18.9079 16.516 19.2183 15.9504L27.9745 0.000644684H17.6401C16.3892 0.000644684 15.2386 0.710173 14.642 1.84962Z" fill="#29A361"/>
  <path d="M27.974 0L19.2182 15.95C18.9072 16.5154 18.2137 16.7136 17.6681 16.3923L15.7983 15.2913C16.2542 15.3674 16.7284 15.1503 16.9698 14.7099L25.0468 0H27.974Z" fill="#248F55"/>
  <path d="M37.5549 8.45922L34.3995 1.94901C33.8206 0.754574 32.641 0.000644684 31.3513 0.000644684H22.228L29.2328 12.3166C29.2099 12.3273 29.1868 12.338 29.1638 12.3487C28.7232 12.5542 28.7412 13.2093 29.1923 13.3888L35.241 15.796C35.5213 15.9076 35.8358 15.7625 35.9434 15.4721L38.2751 9.17953C38.4475 8.71406 37.9948 8.26491 37.5549 8.45922Z" fill="#34CB79"/>
  <path d="M38.2751 9.17899L35.9427 15.4715C35.8356 15.7627 35.5206 15.9079 35.2406 15.7958L33.4104 15.0671L35.5922 9.17899C35.7162 8.84506 35.5181 8.51988 35.2339 8.43458C34.9632 8.35326 34.7321 8.16954 34.6056 7.90858L31.7165 1.94875C31.1379 0.754706 29.9587 0 28.6685 0H31.3514C32.6407 0 33.8199 0.754706 34.3994 1.94875L37.5546 8.45945C37.9951 8.26524 38.4471 8.71361 38.2751 9.17899Z" fill="#2FB86E"/>
  <path d="M31.4594 33.5593C31.3744 33.1978 30.9244 33.043 30.6498 33.3275L25.9222 38.2268C25.7336 38.4223 25.7336 38.7391 25.9222 38.9345L30.668 43.8526C30.9408 44.1353 31.3862 43.9844 31.4758 43.6291H38.4548C39.7397 43.6291 40.9156 42.8809 41.4969 41.6934L45.4791 33.5592H31.4594V33.5593Z" fill="#29A361"/>
  <path d="M37.3508 33.5594L39.6137 37.1079C40.1253 37.9101 40.1819 38.9353 39.762 39.7928L38.8313 41.6935C38.2509 42.8806 37.0745 43.6293 35.79 43.6293H38.4547C39.7392 43.6293 40.9155 42.8806 41.497 41.6935L45.4789 33.5595H37.3508V33.5594Z" fill="#248F55"/>
  <path d="M21.9354 42.6939V34.0356C21.9354 33.3849 21.4263 32.8572 20.7983 32.8572H2.06787L6.88812 42.0281C7.48559 43.1649 8.63469 43.8723 9.88372 43.8723H20.7983C21.4262 43.8723 21.9354 43.3448 21.9354 42.6939Z" fill="#29A361"/>
  <path d="M10.0115 32.858L5.85181 40.0573L2.06787 32.858H10.0115Z" fill="#248F55"/>
  <path d="M21.935 34.0358V42.6944C21.935 43.345 21.426 43.8724 20.7983 43.8724H17.8149C18.4427 43.8724 18.9517 43.345 18.9517 42.6944V34.0358C18.9517 33.3852 18.4427 32.8578 17.8149 32.8578H20.7983C21.426 32.8577 21.935 33.3852 21.935 34.0358Z" fill="#248F55"/>
  <path d="M12.7847 25.2066L11.9436 18.6467C11.902 18.3226 11.6148 18.0949 11.3021 18.1379L4.94784 19.0129C4.46934 19.0788 4.29102 19.682 4.61877 20.0176L0.608522 26.0077C-0.126759 27.106 -0.201384 28.54 0.415585 29.7138L4.77955 38.0167L11.8654 25.7507C11.8679 25.7526 11.8703 25.7546 11.8729 25.7566C12.2773 26.0747 12.8515 25.7282 12.7847 25.2066Z" fill="#34CB79"/>
  <path d="M11.8725 25.7566C11.8705 25.7545 11.8677 25.7526 11.8657 25.7506L4.77961 38.0163L3.32227 35.2438L9.08977 25.2586L9.2497 24.9816C9.33717 24.8302 9.50808 24.7648 9.67523 24.7984C9.67608 24.7986 9.67692 24.7987 9.67777 24.7989C10.0334 24.8646 10.3981 24.5576 10.3435 24.1362L9.60464 18.3712L11.3015 18.138C11.6145 18.095 11.9023 18.3232 11.9438 18.6464L12.785 25.2072C12.8518 25.7285 12.2771 26.0748 11.8725 25.7566Z" fill="#2FB86E"/>
  <path d="M47.3959 25.5569L41.9103 17.3197C41.5739 16.8144 40.9193 16.6615 40.4062 16.9684L33.2574 21.2435C32.69 21.5828 32.5159 22.3475 32.8771 22.9139L42.9549 38.7151L47.6306 29.1643C48.1965 28.0083 48.1065 26.6239 47.3959 25.5569Z" fill="#34CB79"/>
  <path d="M47.6305 29.1645L42.9541 38.7148L41.3857 36.2546L44.8568 29.1644C45.4227 28.0084 45.3329 26.6242 44.6221 25.5572L39.3306 17.6123L40.4064 16.9687C40.9193 16.6614 41.5741 16.8145 41.9102 17.32L47.3959 25.5573C48.1066 26.6243 48.1964 28.0085 47.6305 29.1645Z" fill="#2FB86E"/>
</svg>

<svg xmlns="http://www.w3.org/2000/svg" width="48" height="44" fill="none"><path d="M14.642 1.85l-4.575 8.736c-.295.564-.1 1.27.438 1.586l7.163 4.22c.546.322 1.24.124 1.55-.442L27.974 0H17.64c-1.25 0-2.401.71-2.998 1.85z" fill="#29A361"/><path d="M27.974 0l-8.756 15.95a1.116 1.116 0 01-1.55.442l-1.87-1.1c.456.075.93-.142 1.172-.582L25.047 0h2.927z" fill="#248F55"/><path d="M37.555 8.46L34.4 1.948C33.82.755 32.64.001 31.35.001h-9.123l7.005 12.316-.07.032c-.44.205-.422.86.03 1.04l6.048 2.407a.538.538 0 00.702-.324l2.332-6.292c.172-.466-.28-.915-.72-.72z" fill="#34CB79"/><path d="M38.275 9.179l-2.332 6.293a.537.537 0 01-.702.324l-1.83-.729 2.181-5.888a.567.567 0 00-.358-.744 1.015 1.015 0 01-.628-.526l-2.89-5.96C31.139.755 29.96 0 28.67 0h2.682c1.29 0 2.469.755 3.048 1.949l3.156 6.51c.44-.194.892.255.72.72z" fill="#2FB86E"/><path d="M31.46 33.56c-.086-.362-.536-.517-.81-.233l-4.728 4.9a.513.513 0 000 .708l4.746 4.918c.273.282.718.131.808-.224h6.979c1.285 0 2.46-.748 3.042-1.936l3.982-8.134H31.46z" fill="#29A361"/><path d="M37.35 33.56l2.264 3.548c.511.802.568 1.827.148 2.685l-.93 1.9c-.581 1.188-1.758 1.936-3.042 1.936h2.665c1.284 0 2.46-.748 3.042-1.935l3.982-8.135H37.35z" fill="#248F55"/><path d="M21.935 42.694v-8.658c0-.651-.509-1.179-1.137-1.179H2.068l4.82 9.171c.598 1.137 1.747 1.844 2.996 1.844h10.914c.628 0 1.137-.527 1.137-1.178z" fill="#29A361"/><path d="M10.011 32.858l-4.16 7.2-3.783-7.2h7.944zM21.935 34.036v8.658c0 .651-.509 1.178-1.137 1.178h-2.983c.628 0 1.137-.527 1.137-1.178v-8.658c0-.65-.51-1.178-1.137-1.178h2.983c.628 0 1.137.527 1.137 1.178z" fill="#248F55"/><path d="M12.785 25.207l-.841-6.56a.575.575 0 00-.642-.51l-6.354.876c-.479.066-.657.669-.33 1.005l-4.01 5.99a3.644 3.644 0 00-.192 3.706l4.364 8.303 7.085-12.266.008.006c.404.318.979-.029.912-.55z" fill="#34CB79"/><path d="M11.873 25.757l-.007-.006L4.78 38.016l-1.458-2.772 5.768-9.985.16-.277a.393.393 0 01.425-.184h.003a.582.582 0 00.665-.662l-.738-5.765 1.697-.233c.313-.043.6.185.642.508l.841 6.561c.067.521-.508.868-.912.55z" fill="#2FB86E"/><path d="M47.396 25.557L41.91 17.32a1.113 1.113 0 00-1.504-.352l-7.149 4.276c-.567.339-.741 1.104-.38 1.67l10.078 15.801 4.676-9.55a3.644 3.644 0 00-.235-3.608z" fill="#34CB79"/><path d="M47.63 29.165l-4.676 9.55-1.568-2.46 3.47-7.09a3.643 3.643 0 00-.234-3.608l-5.291-7.945 1.075-.643a1.112 1.112 0 011.504.351l5.486 8.237c.71 1.067.8 2.452.234 3.608z" fill="#2FB86E"/></svg>
